X:1
T:Title
%%score ( 1 2 ) { 3 | 4 }
L:1/8
Q:1/4=85
M:6/8
K:Eb
V:1 treble nm="Grand Piano, Soprano"
V:2 treble 
V:3 bass nm="Choir Pad, When the Goodbyes"
V:4 bass 
V:1
 [EG]/[EG]/[DF][DF] [DF] [DF]2 | [EG]/[DF]/E[B,E] [B,E] [B,E]2 | [EG]/[EG]/[DF][DF] [DF][DF]E | %3
w: By~W.~E.~Catlin * * * * *|||
 z G2- G z z | [EB]/[EB]/[Ec][Ec] [Ec] [Ae]2 | [Bd]/[Ac]/[GB][Ac] [GB] [EG]2 | %6
w: |||
 [EG]/[EG]/[DF][DF] [DF][DF][EG] | [DF] E2- E2- E/ z/ | E[EG][EG] [EG][EG][DF] | %9
w: |||
 [EG] [GB]2- [GB] [EG]2 | [EG]/[EG]/[DF][DF] [DF][DF]E | z G2- G2- G/ z/ | %12
w: |||
 [GB][Ac][Ac] [Ac][ce][Bd] | [Ac] [GB]2- [GB] [EG]2 | [EG] [DF]2 [Ac][GB]<[FA] | [DF] E2- E3- | %16
w: ||||
 E3 z3 |] %17
w: |
V:2
 x6 | x6 | x6 | [DF] E2- E-[EB-]>B | x6 | x6 | x6 | x6 | x6 | x6 | x6 | [DF] E2- E B2 | x6 | x6 | %14
 x6 | x6 | x6 |] %17
V:3
 B,/B,/B,B, B, B,2 | B,/A,/G,G, G, G,2 | B,/B,/B,B, B,B,G, | B, B,2 B, G,2 | %4
 G,/G,/A,A, A,[K:treble] C2 | E/D/EE E[K:bass] B,2 | B,/B,/B,B, B,B,B, | B, G,2- G,2- G,/ z/ | %8
 G,B,B, B,B,B, | B,[K:treble]EE EB,B, | B,/B,/B,B, B,B,G, | B, B,2 B,[K:treble] E2 | CEE EEE | %13
 EEE E[K:bass]B,B, | B, B,2 DE<B, | A, G,2- G,3- | G,3 z3 |] %17
V:4
 E,/E,/B,,B,, B,, B,,2 | B,,/B,,/E,E, E, E,2 | E,/E,/B,,B,, B,,B,,C, | B,, E,2 E, E,2 | %4
 E,<.E, z z A,2 | A,/A,/E,E, E, E,2 | E,/E,/B,,B,, B,,B,,B,, | B,, E,2- E,2- E,/ z/ | %8
 E,E,E, E,E,B,, | E,E,E, E,E,E, | E,/E,/B,,B,, B,,B,,C, | B,, E,2 E, E,2 | E,A,A, A,A,A, | %13
 A,E,E, E,E,E, | E, B,,2 B,,B,,<B,, | B,, E,2- E,3- | E,3 z3 |] %17

